img/footer/facebook.svg

<svg width="14" height="26" viewBox="0 0 14 26" fill="none" xmlns="http://www.w3.org/2000/svg">
<path d="M1.07931 13.9658H3.78194V25.2066C3.78194 25.4285 3.95994 25.6083 4.17961 25.6083H8.76202C8.98169 25.6083 9.15968 25.4285 9.15968 25.2066V14.0188H12.2666C12.4686 14.0188 12.6386 13.8656 12.6616 13.6629L13.1335 9.5246C13.1465 9.41074 13.1108 9.29673 13.0354 9.21131C12.9599 9.12582 12.8519 9.07688 12.7385 9.07688H9.15984V6.4828C9.15984 5.70081 9.5766 5.30427 10.3987 5.30427C10.5158 5.30427 12.7385 5.30427 12.7385 5.30427C12.9582 5.30427 13.1362 5.12437 13.1362 4.90251V1.10395C13.1362 0.88202 12.9582 0.702192 12.7385 0.702192H9.51385C9.4911 0.701067 9.4406 0.699219 9.36615 0.699219C8.80663 0.699219 6.8618 0.810185 5.32553 2.23804C3.62335 3.82033 3.85996 5.71487 3.91651 6.04335V9.0768H1.07931C0.859637 9.0768 0.681641 9.25663 0.681641 9.47856V13.564C0.681641 13.7859 0.859637 13.9658 1.07931 13.9658Z" fill="white"/>
</svg>

<svg width="14" height="26" fill="none" xmlns="http://www.w3.org/2000/svg"><path d="M1.08 13.966h2.702v11.24a.4.4 0 00.398.402h4.582a.4.4 0 00.398-.401V14.019h3.107a.4.4 0 00.395-.356l.471-4.138a.404.404 0 00-.098-.314.396.396 0 00-.296-.134h-3.58V6.483c0-.782.418-1.179 1.24-1.179h2.34a.4.4 0 00.397-.401V1.104a.4.4 0 00-.397-.402H9.514A3.13 3.13 0 009.366.7c-.56 0-2.504.111-4.04 1.539C3.623 3.82 3.86 5.715 3.916 6.043v3.034H1.08a.4.4 0 00-.397.402v4.085a.4.4 0 00.397.402z" fill="#fff"/></svg>
